!!!COM: Corelli, Arcangelo
!!!OPR: Sonata da camera
!!!OPS: 4
!!!ONM: 12
!!!OMV: 2
!!!OTL: Allemanda
!!!OMD: Presto
**kern	**fb	**kern	**kern
*part4	*part4	*part2	*part1
*staff4	*	*staff2	*staff1
*I"Violone & Cembalo	*	*I"Violino II	*I"Violino I
*clefF4	*	*clefG2	*clefG2
*k[f#c#]	*	*k[f#c#]	*k[f#c#]
*b:	*	*b:	*b:
*M2/2	*	*M2/2	*M2/2
*met(c|)	*	*met(c|)	*met(c|)
*MM168	*	*MM168	*MM168
=	=	=	=
8BB	.	8dd	8ff#
=1	=1	=1	=1
4.BB	.	4.dd	4.ff#
8B	.	8dd	8f#
4B	.	4dd	8bL
.	.	.	8dd
4A#X	6	4f#	8cc#
.	.	.	8eeJ
=2	=2	=2	=2
4B	.	4f#	8ddL
.	.	.	8ff#
8DL	6	8r	8bb
8EJ	.	8gg	8cc#J
4F#	6 4	4ff#	8ddL
.	.	.	8bb
4FF#	5 #	4ee	8cc#
.	.	.	8aa#XJ
=3	=3	=3	=3
2BB	5	4.dd	8bL
.	.	.	8dd
.	6	.	8gg
.	.	8dd	8bJ
2AA	.	4ee	8cc#L
.	.	.	8ee
.	.	4cc#	8ani
.	.	.	8aaJ
=4	=4	=4	=4
4D	.	4.a	8ff#L
.	.	.	8a
4F#	6	.	8dd
.	.	8a	8f#J
4E	7	4b	8gL
.	.	.	8dd
4A	7	4a	8e
.	.	.	8cc#J
=5	=5	=5	=5
2D	5	2f#	8dL
.	.	.	8f#
.	6	.	8b
.	.	.	8ddJ
2AA#X	6 -r5	4r	8cc#L
.	.	.	8ee
.	.	4cc#	8a#X
.	.	.	8cc#J
=6	=6	=6	=6
2BB	.	2f#	8ddL
.	.	.	8b
.	.	.	8ff#
.	.	.	8aaniJ
2E#X	6 5	4r	8gg#XL
.	.	.	8bb
.	.	4gg#X	8ee#X
.	.	.	8gg#J
=7	=7	=7	=7
2F#	.	2cc#	8aaL
.	.	.	8cc#
.	.	.	8ff#
.	.	.	8aaJ
4BB	.	4r	8ddL
.	.	.	8ff#
[4B	#6\	4g#X	8b
.	.	.	8ddJ
=8	=8	=8	=8
4B]	4 #2\	4c#	8e#XL
.	.	.	8c#
4A	6	4cc#	8f#
.	.	.	8AJ
4G#X	7	2b	8BL
.	.	.	8f#
4c#	7 #	.	8c#
.	.	.	8e#J
=9	=9	=9	=9
2F#	.	2a	8f#L
.	.	.	8aa
.	.	.	8ff#
.	.	.	8aaJ
4r	.	4r	8ggL
.	.	.	8bb
4A	5	4ee	8cc#
.	.	.	8aaJ
=10	=10	=10	=10
4F#	6	4a	8ddL
.	.	.	8ff#
4G	.	4dd	8b
.	.	.	8ggJ
4E	6 5	4gg	8cc#L
.	.	.	8ee
4F#	#	4cc#	8a#X
.	.	.	8ff#J
=11	=11	=11	=11
2B	.	2dd	8ddL
.	.	.	8b
.	.	.	8f#
.	.	.	8aniJ
4r	.	4r	8gL
.	.	.	8b
4E	6	4g	8e
.	.	.	8cc#J
=12	=12	=12	=12
4F#	#	4c#	8a#XL
.	.	.	8f#
4D	6	4f#	8b
.	.	.	8dJ
4C#	7	2e	8eL
.	.	.	8b
4F#	7 #	.	8f#
.	.	.	8a#J
=13	=13	=13	=13
2BB	.	2d	8bL
.	.	.	8bb
.	.	.	8ff#
.	.	.	8aaniJ
4r	.	4r	8ggL
.	.	.	8bb
4A	.	4ee	8cc#
.	.	.	8aaJ
=14	=14	=14	=14
4F#	6	4a	8ddL
.	.	.	8ff#
4G	.	4dd	8b
.	.	.	8ggJ
4E	6 5	4gg	8cc#L
.	.	.	8ee
4F#	#	4cc#	8a#X
.	.	.	8ff#J
=15	=15	=15	=15
2B	.	2dd	8ddL
.	.	.	8b
.	.	.	8f#
.	.	.	8aniJ
4r	.	4r	8gL
.	.	.	8b
4E	6	4g	8e
.	.	.	8cc#J
=16	=16	=16	=16
4F#	#	4c#	8a#XL
.	.	.	8f#
4D	6	4f#	8b
.	.	.	8dJ
4C#	7	2e	8eL
.	.	.	8b
4F#	7 #	.	8f#
.	.	.	8a#J
=17	=17	=17	=17
2.BB	.	2.d	2.b
8r	.	8r	8r
8D	.	8ff#	8aani
=18||	=18||	=18||	=18||
4.D	.	4.ff#	4.aa
8d	.	8ff#	8aa
4d	.	4aa	8ff#L
.	.	.	8aa
4c#	6	4a	8ee
.	.	.	8aaJ
=19	=19	=19	=19
4d	.	4.a	8ff#L
.	.	.	8aa
4F#	6	.	8dd
.	.	8a	8ff#J
2G	5	4dd	8bL
.	.	.	8dd
.	6	4b	8g
.	.	.	8bJ
=20	=20	=20	=20
4A	.	4e	8c#L
.	.	.	8a
4B	5	4d	8f#
.	.	.	8ddJ
4E	7	4b	8gL
.	.	.	8dd
4A	7	4a	8e
.	.	.	8cc#J
=21	=21	=21	=21
2D	.	2f#	8dL
.	.	.	8ff#
.	.	.	8b
.	.	.	8ggJ
4r	.	4r	8cc#L
.	.	.	8ee
4F#	#	4a#X	8a#X
.	.	.	8ff#J
=22	=22	=22	=22
2BB	.	2b	8ddL
.	.	.	8ff#
.	.	.	8b
.	.	.	8ddJ
4r	.	4r	8e#XL
.	.	.	8cc#
4C#	7 #	4e#X	8g#X
.	.	.	8bJ
=23	=23	=23	=23
2F#	.	2f#	8aL
.	.	.	8cc#
.	.	.	8f#
.	.	.	8aJ
4r	.	4r	8dL
.	.	.	8f#
[4B	#6\	4g#X	8B
.	.	.	8g#XJ
=24	=24	=24	=24
4B]	#4\ 2	4c#	8e#XL
.	.	.	8c#
4A	6	4cc#	8f#
.	.	.	8AJ
4G#X	7	2b	8BL
.	.	.	8f#
4c#	7 #	.	8c#
.	.	.	8e#J
=25	=25	=25	=25
2F#	-	2a	8f#L
.	.	.	8aa
.	.	.	8ff#
.	.	.	8aaJ
4r	.	4r	8dd#XL
.	.	.	8aa
4B	#	4dd#X	8b
.	.	.	8bbJ
=26	=26	=26	=26
4e	.	4ee	8ggL
.	.	.	8b
8GL	6	8bL	8ee
8AJ	.	8ccnJ	8f#J
4B	6 4	4b	8gL
.	.	.	8ee
4BB	5 #	4a	8f#
.	.	.	8dd#XJ
=27	=27	=27	=27
2E	-	2g	8eL
.	.	.	8gg
.	.	.	8bb
.	.	.	8ggJ
4r	.	4r	8eeL
.	.	.	8gg
4E	.	4gg	8bb
.	.	.	8ggJ
=28	=28	=28	=28
2A	7	2ee	8cc#L
.	.	.	8gg
.	.	.	8aa
.	.	.	8ggJ
4r	.	4r	8aL
.	.	.	8gg
4AA	7	4ee	8aa
.	.	.	8ggJ
=29	=29	=29	=29
2D	.	2ff#	8ddL
.	.	.	8ff#
.	.	.	8aa
.	.	.	8ff#J
4r	.	4r	8bL
.	.	.	8ff#
4d	6	4b	8gg
.	.	.	8ff#J
=30	=30	=30	=30
2A#X	6	2cc#	8cc#L
.	.	.	8ee
.	.	.	8ff#
.	.	.	8eeJ
4r	.	4r	8a#XL
.	.	.	8ee
4F#	7 #	4a#X	8ff#
.	.	.	8eeJ
=31	=31	=31	=31
2BB	.	2b	8ddL
.	.	.	8ff#
.	.	.	8bb
.	.	.	8ff#J
4r	.	4r	8ddL
.	.	.	8ff#
4B	.	4dd	8bb
.	.	.	8ff#J
=32	=32	=32	=32
2A	6	2f#	8cc#L
.	.	.	8ff#
.	.	.	8aa
.	.	.	8ff#J
4r	.	4r	8cc#L
.	.	.	8ff#
4AA	6	4cc#	8aa
.	.	.	8ff#J
=33	=33	=33	=33
2GG	6	2e	8bL
.	.	.	8ee
.	.	.	8gg
.	.	.	8eeJ
4r	.	4r	8bL
.	.	.	8ee
4E	.	4g	8gg
.	.	.	8bJ
=34	=34	=34	=34
4F#	#	4c#	8a#XL
.	.	.	8f#
4D	6	4f#	8b
.	.	.	8dJ
4C#	7	2e	8eL
.	.	.	8b
4F#	7 #	.	8f#
.	.	.	8a#J
=35	=35	=35	=35
2BB	.	2d	8bL
.	.	.	8ff#
.	.	.	8bb
.	.	.	8ff#J
4r	.	4r	8ddL
.	.	.	8ff#
4B	.	4dd	8bb
.	.	.	8ff#J
=36	=36	=36	=36
2A	6	2f#	8cc#L
.	.	.	8ff#
.	.	.	8aa
.	.	.	8ff#J
4r	.	4r	8cc#L
.	.	.	8ff#
4AA	6	4cc#	8aa
.	.	.	8ff#J
=37	=37	=37	=37
2GG	6	2e	8bL
.	.	.	8ee
.	.	.	8gg
.	.	.	8eeJ
4r	.	4r	8bL
.	.	.	8ee
4E	.	4g	8gg
.	.	.	8bJ
=38	=38	=38	=38
4F#	#	4c#	8a#XL
.	.	.	8f#
4D	6	4f#	8b
.	.	.	8dJ
4C#	7	2e	8eL
.	.	.	8b
4F#	7 #	.	8f#
.	.	.	8a#J
=39	=39	=39	=39
2.BB	.	2.d	2.b
8r	.	8r	8r
==	==	==	==
*-	*-	*-	*-
!!!system-decoration: [{s1,s2},s3,s4]
!!!YEM: CC BY-NC-SA 4.0; CCARH; DCML
!!!RDF**kern: i = editorial accidental